X:2154
T:Ganivelle - scottish/schottisch/schottische
O:england
C:Frédéric Paris
N:please mail errors to: simon.wascher@chello.at
M:2/4
L:1/16
K:D
DE|F3A E2DE|F2D2 D2EF|GFGA GFED|E3F E2DE|
F3A E2DE|F2D2 D2EF|GFGA BAGF|E6:|
|:A2|B3A G2FG|A2D2 D2A2|B3A G2FG|A3B A2GA|
B3A G2FG|A2D2 D2EF|GFGA GFED|E6:|


